src/fileIcons/FileIconCsv/FileIconCsv_size_s.svg

<svg viewBox="0 0 21 28" xmlns="http://www.w3.org/2000/svg">
  <path
    d="M19.6 0H1.4C0.626801 0 0 0.626801 0 1.4V26.6C0 27.3732 0.626801 28 1.4 28H19.6C20.3732 28 21 27.3732 21 26.6V1.4C21 0.626801 20.3732 0 19.6 0Z"
  />
  <path
    opacity="0.5"
    d="M16 20H13V22H16V20ZM5 20V22H8V20H5ZM9 20V22H12V20H9ZM16 19V17H13V19H16ZM5 19H8V17H5V19ZM9 19H12V17H9V19ZM16 16V14H5V16H8V14H9V16H12V14H13V16H16ZM4 13H17V23H4V13Z"
    fill="#fff"
  />
  <path
    fill-rule="evenodd"
    clip-rule="evenodd"
    d="M6.7 9C6.11333 9 5.68333 8.87667 5.41 8.63C5.13667 8.37667 5 7.96667 5 7.4V5.6C5 5.04 5.13667 4.63333 5.41 4.38C5.69 4.12667 6.12 4 6.7 4H7.99V5H6.74C6.49333 5 6.30667 5.05667 6.18 5.17C6.05333 5.28333 5.99 5.44333 5.99 5.65V7.35C5.99 7.55667 6.05333 7.71667 6.18 7.83C6.30667 7.94333 6.49333 8 6.74 8H7.99V9H6.7ZM13 4H14V7H15V4H16V7L15 9H14L13 7V4ZM11.61 8.69C11.87 8.48333 12 8.17 12 7.75V7.3C12 6.87333 11.8833 6.55333 11.65 6.34C11.4167 6.12 11.0767 6 10.63 6H10.48C10.34 6 10.2233 5.97333 10.13 5.9C10.0433 5.82667 10 5.71333 10 5.56V5.45C10 5.30333 10.05 5.19333 10.15 5.12C10.25 5.04 10.3833 5 10.55 5H12V4H10.5C10.0067 4 9.59333 4.1 9.34 4.3C9.08667 4.49333 9 4.81333 9 5.26V5.73C9 6.17 9.07333 6.49333 9.3 6.7C9.53333 6.9 9.73333 7 10.2 7H10.57C10.8567 7 11 7.15 11 7.45V7.55C11 7.69667 10.9533 7.81 10.86 7.89C10.7667 7.96333 10.63 8 10.45 8H9V9H10.5C10.9867 9 11.3567 8.89667 11.61 8.69Z"
    fill="#fff"
  />
</svg>

<svg viewBox="0 0 21 28" xmlns="http://www.w3.org/2000/svg">
  <path
    d="M19.6 0H1.4A1.4 1.4 0 000 1.4v25.2A1.4 1.4 0 001.4 28h18.2a1.4 1.4 0 001.4-1.4V1.4A1.4 1.4 0 0019.6 0z"
  />
  <path
    fill="#fff"
    d="M16 20h-3v2h3v-2zM5 20v2h3v-2H5zm4 0v2h3v-2H9zm7-1v-2h-3v2h3zM5 19h3v-2H5v2zm4 0h3v-2H9v2zm7-3v-2H5v2h3v-2h1v2h3v-2h1v2h3zM4 13h13v10H4V13z"
    opacity=".5"
  />
  <path
    fill="#fff"
    fill-rule="evenodd"
    d="M6.7 9c-.587 0-1.017-.123-1.29-.37C5.137 8.377 5 7.967 5 7.4V5.6c0-.56.137-.967.41-1.22.28-.253.71-.38 1.29-.38h1.29v1H6.74c-.247 0-.433.057-.56.17-.127.113-.19.273-.19.48v1.7c0 .207.063.367.19.48.127.113.313.17.56.17h1.25v1H6.7zM13 4h1v3h1V4h1v3l-1 2h-1l-1-2V4zm-1.39 4.69c.26-.207.39-.52.39-.94V7.3c0-.427-.117-.747-.35-.96-.233-.22-.573-.34-1.02-.34h-.15a.544.544 0 01-.35-.1c-.087-.073-.13-.187-.13-.34v-.11c0-.147.05-.257.15-.33.1-.08.233-.12.4-.12H12V4h-1.5c-.493 0-.907.1-1.16.3-.253.193-.34.513-.34.96v.47c0 .44.073.763.3.97.233.2.433.3.9.3h.37c.287 0 .43.15.43.45v.1c0 .147-.047.26-.14.34-.093.073-.23.11-.41.11H9v1h1.5c.487 0 .857-.103 1.11-.31z"
    clip-rule="evenodd"
  />
</svg>
